X: 15583
T: Gloup, The
R: jig
M: 6/8
K: Gmajor
|:BAB D2 A|BAB d2 g|e3 dBG|GAA ABc|
BAB D2 A|BAB d2 g|e3 dBG|AGF G3:|
|:e3 g3|dBd g3|deg edB|A3 ABc|
BAB D2 A|BAB d2 g|e3 dBG|AGF G3:|

